X:1
T:Beethoven Sonata 9, Mvt 2
T:Allegretto
T:Beethoven
%%score 1 2 3 4
L:1/8
M:3/4
K:G
V:1 treble nm="Piano" snm="Pno."
V:2 treble nm="Piano" snm="Pno."
V:3 bass nm="Piano" snm="Pno."
V:4 bass nm="Piano" snm="Pno."
V:1
 E3 ^D E2 | E3 ^D E2 | G6- | G2 FE ^DF | E2 F2 G2 | B2 A2 G2 | F4 AG | F2 z2 B2 | e3 ^d e2 | %9
 e3 ^d e2 | g6- | g2 fe ^df | e2 f2 g2 | b2 a2 g2 | g4 f2 | e2 z2 z2 | E3 ^D E2 | G6 | =F3 E F2 | %19
 G6 | E3 ^D E2 | G4 G2 | G4 F2 | G2 z2 G2 | e3 ^d e2 | g6 | =f3 e f2 | g6 | e3 ^d e2 | e4 e2 | %30
 e4 ^d2 | f4 B2 | e3 ^d e2 | e3 ^d e2 | g6- | g2 fe ^df | e2 f2 g2 | b2 a2 g2 | f4 ag | f2 z2 B,2 | %40
 E3 ^D E2 | E3 ^D E2 | c6- | c2 BA ^GB | A2 BA ^GB | A2 BA ^GB | c2 A^G AB | cd e^d ec | %48
 B2 B^A BG | F2 B^A BF | E6 | ^D6 | E2 z2 ^G2 | A2 AB cA | ^G2 z2 e2 | ^d6 | e2 ^d4 | e2 ^d4 | %58
 e2 z2 z2 | ^g2 z2 z2 | [^ge']2 z4 | e'4- e'>E |:[K:C] E6 | D2 F2 B,2 | C2 E2 G2 | G2 ^F2 =F2 | %66
 E6 | D2 F2 B,2 | C2 E2 G2 | c2 d2 ^d2 | e2 g4- | g2 ^f2 g2 | A2 c4- | c2 B4- | B2 ^G2 A2- | %75
 A2 E2 ^F2 | G2 z4 | z6 :| z2 A,2 G2 | F2 E2 D2 | z2 G,2 F2 | E2 D2 C2 | z2 A2 g2 | f2 e2 d2 | %84
 z2 G2 f2 | e2 d2 c2 | B2 A2 G2 | F2 E2 D2 | E6 | D2 F2 B,2 | C2 E2 G2 | .c2 .d2 .^d2 | e6 | %93
 d2 f2 B2 | .c2 .e2 .g2 | .c'2 .d'2 .^d'2 | e'6- | e'6 | b6- | b6!D.S.! || E6 | D2 F2 B,2 | %102
 C2 E2 G2 | c2 d2 ^d2 | e6 | d2 f2 B2 | c2 e2 g2 | c'2 d'2 ^d'2 | e'6- | e'6 | b6- | b6 | e2 z4 | %113
 z6 | z6 | z6 || %116
V:2
 [G,B,]6 | [G,C]6 | [^A,^C]6 | [A,C]6 | B,2 B,2 B,2 | F4 E2 | ^D4 E2 | ^D2 z4 | [GB]6 | [Gc]6 | %10
 [^A^c]6 | [Ac]6 | B2 B2 B2 | f4 e2 | e4 ^d2 | e2 z2 z2 | [G,C]6 | [B,D]6 | [A,D]6 | [DG]6 | %20
 [G,C]6 | [B,D]6 | [A,D]6 | [B,D]2 z4 | [Gc]6 | [Bd]6 | [Ad]6 | [dg]6 | [Gc]6 | e4 e2 | e4 ^d2 | %31
 F4 z2 | [GB]6 | [Gc]6 | [^A^c]6 | [Ac]6 | B2 B2 B2 | f4 e2 | ^d4 e2 | ^d2 z4 | z6 | z6 | [D=F]6- | %43
 [DF]6 | [CE]2 [D=F]4 | [CE]2 [D=F]4 | [CE]2 z4 | z6 | z6 | ^D2 z z z2 | z2 z2 ^G,2 | %51
 A,2 A,B, CA, | ^G,2 z2 [B,E]2 | ^D6 | E2 z2 G2 | A2 AB cA | ^G2 AB cA | ^G2 AB cA | ^G2 z2 z2 | %59
 e2 z2 z2 | e2 z2 z2 | z6 |:[K:C][K:bass] G,6 | F,6 | E,2 z2 z2 | G,2 A,2 B,2 | C6 | z6 | E,2 z4 | %69
 z2 z2 z2 |[K:treble] e4 d2 |[K:treble] c4 B2 | A4 G2 | ^F4 G2 | z2 E4 | C6 | B,2 A,2 G,2 | z6 :| %78
 z2 A,4- | A,6 | z2 G,4- | G,6 | z2 A4- | A6 | z2 G4- | G6 | z6 | z6 | G,6 | F,6 | E,2 z4 | z6 | %92
 [EG]6 | F6 | E2 z4 | z6 | e6- | e6 | B6- | B6 ||[K:bass] G,6 | F,6 | E,2 z4 | z6 |[K:treble] G6 | %105
 F6 | E2 z4 | z6 | e6- | e6 | B6- | B6 | E2 z2 z2 | E2 z4 | E2 z4 | z6 || %116
V:3
 E,3 ^D, E,2 | E,3 ^D, E,2 | G,6- | G,2 F,E, ^D,F, | E,2 ^D,2 E,2 | B,,4 B,,2 | B,,4 ^A,,2 | %7
 B,,2 z4 |[K:treble] E3 ^D E2 | E3 ^D E2 | G6 | G2 FE ^DF |[K:bass] E2 ^D2 E2 | B,4 B,2 | B,4 A,2 | %15
 G,2 z2 z2 | E,6 | G,6 | =F,6 | G,6 | E,6 | D,6 | D,6 | G,,2 z4 |[K:treble] E3 ^D E2 | G6 | %26
 =F3 E F2 | G6 | E3 ^D E2 |[K:bass] ^A,6 | B,6- | B,4 z2 |[K:treble] E3 ^D E2 | E3 ^D E2 | G6- | %35
 G2 FE ^DF |[K:bass] E2 ^D2 E2 | B,4 B,2 | B,4 ^A,2 | B,2 z2 z2 | E,3 ^D, E,2 | E,3 ^D, E,2 | C6- | %43
 C2 B,A, ^G,B, | A,2 B,4 | A,2 B,4 | A,2 z4 | z2 z2 E2 | E2 z4 | B,,2 z4 | z2 z2 B,,2 | %51
 C,2 C,B,, A,,C, | E,6 | C2 CB, A,C | B,2 z2 B,2 | C2 CB, A,C | B,2 CB, A,C | B,2 CB, A,C | %58
 B,2 z2 z2 | B,2 z2 z2 | E,2 z4 | z6 |:[K:C] C,6 | B,,4 D,2 | C,2 z4 | z6 | C,6 | B,,4 D,2 | %68
 C,2 z4 | z6 | C4 B,2 | A,4 G,2 | ^F,4 E,2 | ^D,4 E,2 | C,6 | D,6 | G,,2 z2 z2 | F,2 E,2 D,2 :| %78
 ^C,6 | D,2 E,2 F,2 | B,,6 | C,2 D,2 E,2 | z2 z2 ^C2 | D2 E2 F2 | z2 z2 B,2 | C2 D2 E2 | F2 z4 | %87
 z6 | C,6 | B,,4 D,2 | C,2 z4 | z6 | C6 | B,4 D2 | C2 z2 z2 | z6 | [E,-G,]6 | [E,A,]6 | %98
 [E,G,B,-]6 | [^D,^F,B,]6 || C,6 | B,,4 D,2 | C,2 z4 | z6 | C6 | B,4 D2 | C2 z2 z2 | z6 | [E,G,]6 | %109
 [E,A,]6 | [E,G,B,]6 | [^D,^F,B,]6 | C,2 z2 z2 | C,2 z4 | C,2 z4 | z6 || %116
V:4
 E,3 z z2 | C,6 | ^A,,6 | A,,6 | G,,2 F,,2 E,,2 | ^D,,4 E,,2 | B,,,6- | B,,,2 z4 | %8
[K:treble] E3 z z2 | C6 | ^C6 | C6 |[K:bass] G,2 F,2 E,2 | ^D,4 E,2 | B,,6 | E,2 z4 | C,6 | G,,6 | %18
 D,6 | B,,6 | C,6 | G,,6 | D,,6 | G,,,2 z4 |[K:treble] C6 | G,6 | D6 | B,6 | C6 |[K:bass] C,6 | %30
 B,,6- | B,,4 z2 |[K:treble] E3 z z2 | C6 | ^A,6 | A,6 |[K:bass] G,2 F,2 E,2 | ^D,4 E,2 | B,,6- | %39
 B,,2 z4 | E,2 z4 | C,6 | [D,=F,]6- | [D,F,]6 | [C,E,]2 [D,=F,]4 | [C,E,]2 [D,=F,]4 | %46
 [C,E,]2 z2 z2 | z2 z2 A,2 | B,2 z2 z2 | B,,,2 z2 z2 | E,,6- | E,,6 | E,,2 z4 | E,6 | E,6- | E,6 | %56
 E,2 E,4 | E,2 E,4 | E,2 z2 z2 | E,2 z2 z2 | [E,,B,,]2 z4 | z6 |:[K:C] C,,6- | C,,6 | C,,2 z4 | %65
 z6 | C,,6- | C,,4 z2 | C,,2 z4 | z6 | z6 | z6 | z6 | z6 | z6 | z6 | z6 | z6 :| G,,6- | G,,6 | %80
 G,,6- | G,,6 | G,6- | G,6 | G,6- | G,6- | G,2 z4 | z6 | C,,6- | C,,6 | C,,2 z4 | z6 | C,6- | C,6 | %94
 C,2 z2 z2 | z6 | C,6- | C,6 | B,,6- | B,,6 || C,,6- | C,,6 | C,,2 z4 | z6 | C,6- | C,6 | C,2 z4 | %107
 z6 | C,6 | C,6 | B,,6 | B,,6 | E,,2 z2 z2 | E,,2 z4 | E,,2 z4 | z6 || %116

